icons/svg/square-inc-cash.svg

﻿<?xml version="1.0" encoding="utf-8"?>
<!DOCTYPE svg PUBLIC "-//W3C//DTD SVG 1.1//EN" "http://www.w3.org/Graphics/SVG/1.1/DTD/svg11.dtd">
<svg xmlns="http://www.w3.org/2000/svg" xmlns:xlink="http://www.w3.org/1999/xlink" version="1.1" baseProfile="full" width="24" height="24" viewBox="0 0 24.00 24.00" enable-background="new 0 0 24.00 24.00" xml:space="preserve">
	<path fill="#000000" fill-opacity="1" stroke-width="0.2" stroke-linejoin="round" d="M 5.5,3.62396e-005L 18.5,3.62396e-005C 21.5375,3.62396e-005 24,2.46247 24,5.50003L 24,18.5C 24,21.5376 21.5375,24 18.5,24L 5.5,24C 2.46243,24 0,21.5376 0,18.5L 0,5.50003C 0,2.46247 2.46243,3.62396e-005 5.5,3.62396e-005 Z M 15.385,15.1805C 15.385,16.7597 14.4922,17.8051 12.8515,17.9491L 12.8515,12.6096C 14.5498,13.1347 15.385,13.6589 15.385,15.1805 Z M 11.6496,6.01632L 11.6496,10.8806C 10.3373,10.5245 9.02976,9.9312 9.02976,8.42688C 9.02976,6.94272 10.1789,6.1152 11.6496,6.01632 Z M 15.5059,7.59648L 16.5187,6.80448C 15.6211,5.65824 14.399,4.92384 12.8496,4.7664L 12.8496,3.79968L 11.6496,3.79968L 11.6496,3.8016L 11.6496,4.7472C 9.52416,4.88544 7.67904,6.17184 7.67904,8.50656C 7.67904,10.9997 9.74208,11.7773 11.6486,12.2918L 11.6496,17.9597C 10.536,17.8416 9.288,17.3117 8.4336,16.0253L 7.3008,16.777C 8.19552,18.1229 9.76224,18.9782 11.6496,19.1366L 11.6496,20.2013L 12.0672,20.2003L 12.8515,20.2003L 12.8515,19.1606C 15.3466,18.9754 16.6992,17.3357 16.6992,15.1411C 16.6992,12.5808 14.8118,11.7638 12.8515,11.1907L 12.8515,6.04608C 13.9862,6.21696 14.8454,6.7632 15.5059,7.59648 Z "/>
</svg>

<svg xmlns="http://www.w3.org/2000/svg" version="1.1" baseProfile="full" width="24" height="24" viewBox="0 0 24.00 24.00" xml:space="preserve"><path fill="#000" fill-opacity="1" stroke-width=".2" stroke-linejoin="round" d="M5.5 0h13C21.538 0 24 2.462 24 5.5v13c0 3.038-2.462 5.5-5.5 5.5h-13C2.462 24 0 21.538 0 18.5v-13C0 2.462 2.462 0 5.5 0zm9.885 15.18c0 1.58-.893 2.625-2.534 2.77l.002-5.34c1.698.525 2.533 1.05 2.533 2.57zM11.65 6.017v4.865c-1.313-.356-2.62-.95-2.62-2.453 0-1.484 1.15-2.312 2.62-2.41zm3.856 1.58l1.013-.792c-.9-1.146-2.12-1.88-3.67-2.038V3.8h-1.2v.947c-2.126.138-3.97 1.425-3.97 3.76 0 2.493 2.062 3.27 3.97 3.785v5.668c-1.114-.118-2.362-.648-3.216-1.935l-1.133.752c.896 1.346 2.462 2.2 4.35 2.36V20.2h1.201l.002-1.04c2.495-.185 3.847-1.824 3.847-4.02 0-2.56-1.888-3.376-3.848-3.95V6.047c1.134.17 1.993.717 2.654 1.55z"/></svg>
